X:1
T:Shove That Pig's Foot a Little Further in the Fire
M:C|
L:1/8
K:G
GA |\
"G"BdBA G2 E2 | "C"GAGE "G"D4 | DE G2 B3c | "D"B2 A4 GA |\
"G"BdBA G2 E2 |
"C"GAGE "G"D4 | DE G2 "D"B3G | "G"A2 G4 :: GA |\
"G"Bd-d2 dBdg | "C"edBc "G"d4 |
"C"g4 g3d | "D"e2 d4 dd |\
"G"Bd-d2 dBdg | "C"edBc "G"d4 | BABd "D"BAGB | "G"A2 G4 :|
